icons/css-3.svg

<?xml version="1.0" encoding="iso-8859-1"?>
<!-- Generator: Adobe Illustrator 19.0.0, SVG Export Plug-In . SVG Version: 6.00 Build 0)  -->
<svg version="1.1" id="Capa_1" xmlns="http://www.w3.org/2000/svg" xmlns:xlink="http://www.w3.org/1999/xlink" x="0px" y="0px"
	 viewBox="0 0 512 512" style="enable-background:new 0 0 512 512;" xml:space="preserve">
<g>
	<g>
		<path d="M32,0l40.8,460.8L256,512l183.136-51.168L480,0H32z M392.768,150.688l-5.152,57.888l-15.52,173.568L256,414.208
			l-0.064,0.032l-116-32.128l-8.128-90.752h56.832l4.224,47.104l63.072,17.024l0.064-0.064l63.136-17.024l8.608-78.432
			l-198.656,0.544l-5.632-53.664l209.056-2.432l4.224-57.44l-218.88,0.608l-3.68-53.376H256h141.824L392.768,150.688z"/>
	</g>
</g>
<g>
</g>
<g>
</g>
<g>
</g>
<g>
</g>
<g>
</g>
<g>
</g>
<g>
</g>
<g>
</g>
<g>
</g>
<g>
</g>
<g>
</g>
<g>
</g>
<g>
</g>
<g>
</g>
<g>
</g>
</svg>

<svg width="512" height="512" viewBox="0 0 512 512" fill="none" xmlns="http://www.w3.org/2000/svg">
<path d="M32 0L72.8 460.8L256 512L439.136 460.832L480 0H32ZM392.768 150.688L387.616 208.576L372.096 382.144L256 414.208L255.936 414.24L139.936 382.112L131.808 291.36H188.64L192.864 338.464L255.936 355.488L256 355.424L319.136 338.4L327.744 259.968L129.088 260.512L123.456 206.848L332.512 204.416L336.736 146.976L117.856 147.584L114.176 94.208H256H397.824L392.768 150.688Z" fill="#FF4A57"/>
</svg>
